icons/vitruvian-man-two-color.svg

<?xml version="1.0" encoding="UTF-8"?><svg xmlns="http://www.w3.org/2000/svg" viewBox="0 0 50 50"><g id="uuid-297bfbfe-edf6-4272-8884-c38345aac902"><path d="M11.84,20.2c.66,0,9.17-.04,9.17-.04h0c.13,0,.26,.05,.35,.15,.09,.09,.15,.22,.15,.35v25.75c0,1.04,.84,1.88,1.88,1.88h.34c.99,0,1.79-.77,1.86-1.74h0c.02-.32,.27-.56,.53-.55,.2,0,.38,.14,.47,.34,0,.02,.01,.05,.01,.07,0,1.04,.84,1.88,1.88,1.88h.26c1.04,0,1.88-.84,1.88-1.88V20.7c0-.28,.22-.5,.5-.5,0,0,8.7-.04,9.42-.04,.4,0,1.9-.35,1.9-2.05,0-1.82-1.27-2.01-1.81-2.01H21.01s-8.21,.04-9.25,.04c-.45,0-1.92,.14-1.92,1.97,0,2.07,1.97,2.09,1.99,2.09Z" fill="#ffcd00"/><path d="M47.36,25c0-5.84-2.19-11.17-5.78-15.23v-2.52c0-.28-.22-.5-.5-.5h-2.73c-3.88-2.99-8.74-4.77-14.01-4.77s-10.13,1.78-14.01,4.77h-2.73c-.28,0-.5,.22-.5,.5v2.52C3.5,13.83,1.32,19.16,1.32,25s2.19,11.17,5.78,15.23v7.29c0,.28,.22,.5,.5,.5H41.09c.28,0,.5-.22,.5-.5v-7.29c3.59-4.06,5.78-9.4,5.78-15.23Zm-1,0c0,5.16-1.79,9.92-4.78,13.68V17.19c.06-.25,.1-.52,.1-.83,0-.33-.04-.62-.1-.88v-4.15c2.99,3.76,4.78,8.51,4.78,13.68ZM24.39,4.5c1.89,0,3.43,1.54,3.43,3.43s-1.54,3.43-3.43,3.43-3.43-1.54-3.43-3.43,1.54-3.43,3.43-3.43Zm0,7.87c2.44,0,4.43-1.99,4.43-4.43,0-.06-.02-.12-.02-.18h7.14s-.05,.04-.08,.06h0l.04,.04c-.39,.31-1.05,.97-2.32,2.24l-3.25,3.25h-11.08s-.29,0-.75,0c-3.4-3.41-4.83-4.83-5.47-5.39-.02-.07-.06-.14-.12-.19h7.06s-.02,.11-.02,.17c0,2.44,1.99,4.43,4.43,4.43Zm14.19-3.85l.19,.19c.55,.55,.55,1.45,0,2.01l-2.63,2.63h-4.4l2.55-2.55c1.25-1.25,2.12-2.12,2.28-2.28,.55-.55,1.45-.55,2.01,0Zm-28.57,.14l.19-.19c.55-.55,1.45-.55,2.01,0h0l4.88,4.89c-1.3,0-2.97,.01-4.38,.02l-2.71-2.71c-.55-.55-.55-1.45,0-2.01Zm0,5.72c1.04,0,9.25-.04,9.25-.04h19.61c.54,0,1.81,.2,1.81,2.01,0,1.7-1.5,2.05-1.9,2.05-.72,0-9.42,.04-9.42,.04-.27,0-.5,.22-.5,.5v25.71c0,1.04-.84,1.88-1.88,1.88h-.26c-1.04,0-1.88-.84-1.88-1.88,0-.02-.01-.05-.01-.07v-14.3c0-.28-.22-.5-.5-.5s-.5,.22-.5,.5v14.5h0c-.07,.97-.88,1.74-1.86,1.74h-.34c-1.04,0-1.88-.84-1.88-1.88V18.91c0-.13-.05-.26-.15-.35-.09-.09-.22-.15-.35-.15h0s-8.51,.04-9.17,.04c-.02,0-1.99-.02-1.99-2.09,0-1.83,1.47-1.97,1.92-1.97Zm28.79,27.16l-.19,.19c-.55,.55-1.45,.55-2.01,0l-.05,.05c-.5-.6-2.05-2.16-6.68-6.79v-4.47l8.93,9.01c.55,.55,.55,1.45,0,2.01Zm-28.49-.05c-.55-.55-.55-1.45,0-2.01l8.45-8.45v4.39l-4.31,4.31c-1.05,1.05-1.63,1.63-1.91,1.98l-.03-.03c-.55,.55-1.45,.55-2.01,0l-.19-.19ZM40.59,13.89c-.51-.37-1.13-.54-1.71-.54h-1.32l1.92-1.92c.47-.47,.7-1.08,.71-1.7,.13,.14,.27,.27,.4,.42v3.74Zm-31.28-2.51l2,2c-.63,0-1.1,0-1.3,0-.56,0-1.31,.17-1.92,.66v-3.89c.17-.18,.34-.36,.51-.53-.01,.64,.22,1.28,.7,1.76Zm-1.21,7.31c.68,.57,1.53,.76,1.99,.76,.56,0,6.84-.03,8.67-.04v10.22l-9.16,9.15c-.53,.53-.75,1.23-.69,1.92-.28-.28-.56-.56-.82-.85V18.69Zm4.73,24.02l.04,.03,.35-.35h0c.27-.27,2.72-2.72,5.55-5.55v7.81c0,.69,.25,1.31,.65,1.8-2.79-.64-5.38-1.81-7.65-3.4,.37-.04,.74-.14,1.06-.35Zm10.78,4.29c.29-.2,.55-.44,.75-.73,.2,.29,.46,.53,.75,.73-.25,0-.51,.02-.76,.02s-.49-.01-.74-.02Zm6.27-2.35v-8.24l6.03,6.03h0l.02,.03c.3,.29,.65,.47,1.02,.58-2.3,1.61-4.92,2.79-7.74,3.43,.41-.5,.67-1.13,.67-1.82Zm10.32-4.39c-.06-.53-.28-1.04-.68-1.44l-9.64-9.72v-9.66c1.86,0,8.31-.04,8.92-.04,.46,0,1.18-.19,1.79-.68v21.12c-.13,.14-.26,.28-.39,.41Zm.39-32.52v.95c-.33-.33-.67-.64-1.02-.95h1.02ZM24.34,2.98c4.56,0,8.8,1.39,12.31,3.77h-8.01c-.52-1.87-2.22-3.25-4.25-3.25s-3.73,1.38-4.25,3.25H12.03c3.52-2.38,7.76-3.77,12.32-3.77ZM9.12,7.75c-.35,.31-.69,.62-1.02,.95v-.95h1.02ZM2.32,25c0-5.16,1.79-9.92,4.78-13.68v27.35c-2.99-3.76-4.78-8.51-4.78-13.67Zm5.78,22.02v-5.72c2.63,2.62,5.89,4.61,9.54,5.72H8.1Zm22.96,0c3.64-1.11,6.9-3.1,9.53-5.72v5.72h-9.53Z"/></g><g id="uuid-bc594304-d07f-4957-b068-535975e61c9f"><text transform="translate(.36 54.96)" font-family="Roboto-Regular, Roboto" font-size="6"><tspan x="0" y="0">vitruvian-man</tspan></text></g></svg>

<svg xmlns="http://www.w3.org/2000/svg" viewBox="0 0 50 50"><g id="e97181b2-c804-411c-87ca-927fce665015" data-name="ICONS"><path d="M11.84,20.2l9.17,0h0a.52.52,0,0,1,.36.14.54.54,0,0,1,.14.36V46.41a1.89,1.89,0,0,0,1.88,1.88h.34a1.88,1.88,0,0,0,1.86-1.75h0a.57.57,0,0,1,.54-.55.55.55,0,0,1,.46.35s0,0,0,.07a1.89,1.89,0,0,0,1.88,1.88h.26a1.88,1.88,0,0,0,1.88-1.88V20.7a.5.5,0,0,1,.5-.5l9.42,0a2,2,0,0,0,1.9-2.05c0-1.82-1.27-2-1.81-2H21l-9.25,0a1.8,1.8,0,0,0-1.91,2A2,2,0,0,0,11.84,20.2Z" fill="#fdd600"/><path d="M47.36,25A22.91,22.91,0,0,0,41.59,9.77V7.25a.5.5,0,0,0-.5-.5H38.35a23,23,0,0,0-28,0H7.6a.5.5,0,0,0-.5.5V9.77a23,23,0,0,0,0,30.46v7.29a.5.5,0,0,0,.5.5H41.09a.5.5,0,0,0,.5-.5V40.23A22.91,22.91,0,0,0,47.36,25Zm-1,0a22,22,0,0,1-4.77,13.68V17.19a3.63,3.63,0,0,0,.1-.83,4,4,0,0,0-.1-.89V11.32A22,22,0,0,1,46.36,25Zm-22-20.5A3.44,3.44,0,1,1,21,7.93,3.44,3.44,0,0,1,24.39,4.5Zm0,7.87a4.43,4.43,0,0,0,4.43-4.44c0-.06,0-.12,0-.18H36l-.08.06h0l0,0c-.39.31-1,1-2.32,2.24l-3.25,3.26H18.51C15.1,9.94,13.68,8.52,13,8a.47.47,0,0,0-.12-.2H20c0,.06,0,.12,0,.18A4.44,4.44,0,0,0,24.39,12.37ZM38.58,8.52l.2.19a1.43,1.43,0,0,1,0,2l-2.63,2.63h-4.4L34.3,10.8l2.28-2.28A1.42,1.42,0,0,1,38.58,8.52ZM10,8.66l.2-.19a1.42,1.42,0,0,1,2,0h0l4.88,4.89H12.72L10,10.67A1.43,1.43,0,0,1,10,8.66Zm0,5.72,9.25,0H38.88c.54,0,1.81.19,1.81,2a2,2,0,0,1-1.9,2.05l-9.42,0a.5.5,0,0,0-.5.5V44.66A1.88,1.88,0,0,1,27,46.54h-.26a1.89,1.89,0,0,1-1.88-1.88s0,0,0-.07V30.29a.5.5,0,0,0-1,0v14.5h0A1.88,1.88,0,0,1,22,46.54h-.34a1.89,1.89,0,0,1-1.88-1.88V18.91a.54.54,0,0,0-.14-.36.52.52,0,0,0-.36-.14h0l-9.17,0a2,2,0,0,1-2-2.09A1.8,1.8,0,0,1,10,14.38ZM38.8,41.54l-.19.19a1.41,1.41,0,0,1-2,0l-.05.06c-.5-.61-2-2.17-6.68-6.79V30.53l8.93,9A1.41,1.41,0,0,1,38.8,41.54Zm-28.49,0a1.42,1.42,0,0,1,0-2L18.76,31v4.39l-4.31,4.31c-1,1-1.62,1.63-1.91,2l0,0a1.43,1.43,0,0,1-2,0Zm30.28-27.6a3,3,0,0,0-1.71-.54H37.56l1.92-1.93a2.41,2.41,0,0,0,.71-1.69l.4.41ZM9.31,11.38l2,2H10A3.16,3.16,0,0,0,8.1,14V10.15c.16-.19.33-.36.51-.54A2.38,2.38,0,0,0,9.31,11.38ZM8.1,18.69a3.35,3.35,0,0,0,2,.76l8.67,0V29.63L9.6,38.78a2.4,2.4,0,0,0-.68,1.92c-.28-.27-.56-.56-.82-.85Zm4.72,24,0,0,.36-.36h0l5.54-5.54v7.81a2.8,2.8,0,0,0,.66,1.8,22,22,0,0,1-7.66-3.4A2.38,2.38,0,0,0,12.82,42.71ZM23.6,47a2.71,2.71,0,0,0,.75-.72,3,3,0,0,0,.75.72l-.76,0Zm6.27-2.34V36.41l6,6h0l0,0A2.39,2.39,0,0,0,37,43a21.78,21.78,0,0,1-7.75,3.44A2.87,2.87,0,0,0,29.87,44.66Zm10.32-4.39a2.4,2.4,0,0,0-.68-1.44l-9.64-9.72V19.45l8.92,0a3.1,3.1,0,0,0,1.8-.68V39.85Zm.4-32.52V8.7c-.33-.33-.68-.64-1-.95ZM24.34,3A21.92,21.92,0,0,1,36.66,6.75h-8a4.4,4.4,0,0,0-8.5,0H12A21.87,21.87,0,0,1,24.34,3ZM9.12,7.75c-.35.31-.69.62-1,.95V7.75ZM2.32,25A21.92,21.92,0,0,1,7.1,11.32V38.67A21.89,21.89,0,0,1,2.32,25ZM8.1,47V41.3A23,23,0,0,0,17.63,47Zm23,0a23.13,23.13,0,0,0,9.54-5.72V47Z" fill="#231f20"/></g><g id="bd3fbb5e-58bc-4abc-885d-b1fef4532a5a" data-name="LABELS"><text transform="translate(0.36 54.96)" font-size="6" fill="#231f20" font-family="Roboto-Regular, Roboto">vitruvian-man</text></g></svg>
